src/Pure/16/symbolic/actions/document-import-symbolic.svg

<svg version="1.1" viewBox="0 0 16 16" xmlns="http://www.w3.org/2000/svg">
 <defs>
  <style id="current-color-scheme" type="text/css">.ColorScheme-Text {
        color:#363636;
      }</style>
 </defs>
 <path d="m5 0c-1.1046 0-2 0.89543-2 2v4.207c0.32228-0.09115 0.65659-0.1546 1-0.18555v-4.0215c0-0.55228 0.44787-0.98723 1-1h4v3.5c0 0.82843 0.6716 1.5 1.5 1.5h3.5v7c0 0.5523-0.4477 1-1 1h-3.5996c-0.1829 0.3578-0.40457 0.6929-0.6582 1h4.2578c1.1046 0 2-0.8954 2-2v-7.5859c0-0.39782-0.15815-0.7792-0.43945-1.0605l-3.9141-3.9141c-0.2813-0.2813-0.66275-0.43945-1.0605-0.43945h-4.5859zm5 1.207 3.793 3.793h-3.293c-0.2761 0-0.5-0.22386-0.5-0.5v-3.293zm-5.5 5.793c-2.4853 0-4.5 2.0147-4.5 4.5 0 2.4853 2.0147 4.5 4.5 4.5s4.5-2.0147 4.5-4.5c0-2.4853-2.0147-4.5-4.5-4.5zm0.58594 2.584c0.12781 0 0.25558 0.050503 0.35352 0.14844l1.3789 1.3809c0.012338 0.010174 0.023859 0.021907 0.035156 0.033203 0.011297 0.011297 0.02303 0.022819 0.033203 0.035157v0.001953 0.001953c0.0054263 0.006685 0.012548 0.012643 0.017578 0.019531 0.0027842 0.003814 0.005135 0.007823 0.0078125 0.011719 8.269e-4 0.001203 0.0011365 0.002695 0.0019531 0.003906 9.92e-4 0.001465 0.0029315 0.002433 0.0039063 0.003906 0.007844 0.011904 0.014661 0.024518 0.021484 0.03711 0.0011084 0.002033 0.0028283 0.003814 0.0039063 0.005859 0.003945 0.007533 0.0061993 0.015683 0.0097656 0.023438 0.0032975 0.00717 0.0068018 0.014133 0.0097656 0.021484 0.011877 0.029457 0.02121 0.059829 0.027344 0.091797 0.002787 0.014524 0.0063033 0.029972 0.0078125 0.044922v0.001953 0.001953c0.0014524 0.015591 0.0019531 0.030892 0.0019531 0.046875 0 0.015976-4.229e-4 0.030957-0.0019531 0.046875v0.001953 0.001953c-0.0015209 0.014668-0.0049908 0.030407-0.0078125 0.044922-0.0061342 0.031968-0.015466 0.06234-0.027344 0.091797-0.0029638 0.007351-0.0064681 0.014314-0.0097656 0.021484-0.0012287 0.002672-0.0026321 0.005167-0.0039062 0.007813-0.002426 0.005004-0.0032563 0.010686-0.0058594 0.015625-0.0010888 0.002079-0.0027893 0.003798-0.0039063 0.005859-0.0067584 0.012401-0.013597 0.025189-0.021484 0.03711-0.0053986 0.008192-0.011719 0.015593-0.017578 0.023437-0.0043404 0.005812-0.0090461 0.011914-0.013672 0.017578-0.020611 0.02516-0.043268 0.049622-0.068359 0.070313l-1.3789 1.3809c-0.19587 0.19587-0.51116 0.19587-0.70703 0-0.19587-0.19587-0.19587-0.51116 0-0.70703l0.56055-0.56055h-2.793c-0.277 0-0.5-0.223-0.5-0.5s0.223-0.5 0.5-0.5h2.793l-0.56055-0.56055c-0.19587-0.19587-0.19587-0.51116 0-0.70703 0.097934-0.097934 0.22571-0.14844 0.35352-0.14844z" fill="#363636"/>
</svg>

<?xml version="1.0" encoding="UTF-8" standalone="no"?>
<svg
   version="1.1"
   viewBox="0 0 16 16"
   id="svg2"
   sodipodi:docname="document-import-symbolic.svg"
   inkscape:version="1.4.2 (ebf0e940d0, 2025-05-08)"
   xmlns:inkscape="http://www.inkscape.org/namespaces/inkscape"
   xmlns:sodipodi="http://sodipodi.sourceforge.net/DTD/sodipodi-0.dtd"
   xmlns="http://www.w3.org/2000/svg"
   xmlns:svg="http://www.w3.org/2000/svg">
  <sodipodi:namedview
     id="namedview2"
     pagecolor="#ffffff"
     bordercolor="#000000"
     borderopacity="0.25"
     inkscape:showpageshadow="2"
     inkscape:pageopacity="0.0"
     inkscape:pagecheckerboard="0"
     inkscape:deskcolor="#d1d1d1"
     inkscape:zoom="35.134368"
     inkscape:cx="6.1335955"
     inkscape:cy="8.723652"
     inkscape:window-width="1920"
     inkscape:window-height="1010"
     inkscape:window-x="0"
     inkscape:window-y="0"
     inkscape:window-maximized="1"
     inkscape:current-layer="svg2" />
  <defs
     id="defs1">
    <style
       id="current-color-scheme"
       type="text/css">
      .ColorScheme-Text { color:#363636; }
    </style>
  </defs>
  <path
     id="path1"
     style="fill:currentColor;fill-opacity:1"
     class="ColorScheme-Text"
     d="M 4.5,7 C 6.9853,7 9,9.0147 9,11.5 9,13.9853 6.9853,16 4.5,16 2.0147,16 0,13.9853 0,11.5 0,9.0147 2.0147,7 4.5,7 Z m 0.5859375,2.5839844 c -0.12781,0 -0.2555816,0.050503 -0.3535156,0.1484375 -0.19587,0.19587 -0.19587,0.5111611 0,0.7070311 L 5.2929688,11 H 2.5 C 2.223,11 2,11.223 2,11.5 2,11.777 2.223,12 2.5,12 h 2.7929688 l -0.5605469,0.560547 c -0.19587,0.19587 -0.19587,0.511161 0,0.707031 0.19587,0.19587 0.5111612,0.19587 0.7070312,0 l 1.3789063,-1.380859 c 0.025091,-0.02069 0.047748,-0.04515 0.068359,-0.07031 0.00462,-0.0057 0.00933,-0.01178 0.013672,-0.01758 0.00586,-0.0078 0.012178,-0.01524 0.017578,-0.02344 0.00789,-0.01192 0.014724,-0.02471 0.021484,-0.03711 v -0.002 h 0.00195 l 0.00195,-0.002 v -0.002 c 0.0026,-0.0049 0.00343,-0.01062 0.00586,-0.01563 0.00128,-0.0026 0.00268,-0.0051 0.00391,-0.0078 0.0033,-0.0072 0.00681,-0.01408 0.00977,-0.02148 0.011877,-0.02946 0.021214,-0.05983 0.027344,-0.0918 0.00282,-0.01451 0.00629,-0.03025 0.00781,-0.04492 v -0.0039 C 6.999574,11.530965 7,11.51598 7,11.5 c 0,-0.01598 -5.082e-4,-0.0315 -0.00195,-0.04687 v -0.0039 c -0.00151,-0.01495 -0.00502,-0.0304 -0.00781,-0.04492 -0.00613,-0.03197 -0.015467,-0.06234 -0.027344,-0.0918 -0.00297,-0.0074 -0.00647,-0.01428 -0.00977,-0.02148 -0.00357,-0.0078 -0.00583,-0.01594 -0.00977,-0.02344 v -0.002 h -0.00195 l -0.00195,-0.002 v -0.002 c -0.00682,-0.01259 -0.013644,-0.02521 -0.021484,-0.03711 l -0.00195,-0.002 h -0.00195 v -0.002 -0.002 h -0.00195 v -0.002 c -0.00267,-0.0039 -0.00503,-0.0079 -0.00781,-0.01172 -0.00503,-0.0069 -0.012148,-0.01283 -0.017578,-0.01953 v -0.0039 c -0.010173,-0.01234 -0.021906,-0.02386 -0.033203,-0.03516 -0.011297,-0.01129 -0.022818,-0.02303 -0.035156,-0.0332 L 5.4394531,9.7324219 C 5.3415131,9.6344849 5.2137475,9.5839844 5.0859375,9.5839844 Z" />
  <path
     id="path2"
     style="fill:currentColor;fill-opacity:1"
     class="ColorScheme-Text"
     d="M 5 0 C 3.8954 0 3 0.89543 3 2 L 3 6.2070312 C 3.32228 6.1158813 3.65659 6.0524344 4 6.0214844 L 4 2 C 4 1.44772 4.44787 1.01277 5 1 L 9 1 L 9 4.5 C 9 5.32843 9.6716 6 10.5 6 L 14 6 L 14 13 C 14 13.5523 13.5523 14 13 14 L 9.4003906 14 C 9.2174906 14.3578 8.9958175 14.6929 8.7421875 15 L 13 15 C 14.1046 15 15 14.1046 15 13 L 15 5.4140625 C 15 5.0162425 14.841847 4.6348156 14.560547 4.3535156 L 10.646484 0.43945312 C 10.365184 0.15815313 9.9836875 -7.4014868e-17 9.5859375 0 L 5 0 z M 10 1.2070312 L 13.792969 5 L 10.5 5 C 10.2239 5 10 4.77614 10 4.5 L 10 1.2070312 z " />
</svg>
